X:1
T:Shadow You Have Seen
M:4/4
L:1/8
K:D
 AA B| =c4- cdB/2-A/2 G| A2 D4 AB| =ccB/2-A/2 G A2 z D/2D/2| DDE/2-D/2 =CD|\
 CA, G,/2A,/2| DD E/2D/2 =C D2 DF| AA GF GA DF| AA GF D2 DF| AA GF|\
 GA GF| DE FD G2 DF| AA GF GA GF| D4 z||
